findly-builder/apps/searchassist/src/assets/images/logos/searchassist-new-logo.svg

<svg width="1784" height="411" fill="none" xmlns="http://www.w3.org/2000/svg"><path d="M303 160v130a13 13 0 0 1-13 13H160a52.005 52.005 0 0 1-36.77-15.23A52.005 52.005 0 0 1 108 251v-91a52.005 52.005 0 0 1 15.23-36.77A52.005 52.005 0 0 1 160 108h91a52.005 52.005 0 0 1 36.77 15.23A52.005 52.005 0 0 1 303 160Z" fill="#F7BF0A"/><path d="m257.527 244.495-20.475-20.475a44.97 44.97 0 0 0 7.475-25.025 45.494 45.494 0 0 0-28.088-42.036 45.497 45.497 0 0 0-59.448 59.448 45.494 45.494 0 0 0 42.036 28.088 44.97 44.97 0 0 0 25.025-7.475l20.475 20.475a9.193 9.193 0 1 0 13-13Zm-29.965-29.965a32.883 32.883 0 0 1-13 13 32.039 32.039 0 0 1-15.535 3.965 32.502 32.502 0 0 1-31.875-38.84 32.5 32.5 0 0 1 64.375 6.34 32.039 32.039 0 0 1-3.965 15.535Z" fill="#fff"/><path d="M203.646 203.61a6.496 6.496 0 0 1-7.107 1.426 6.503 6.503 0 0 1-4.008-6.041 6.5 6.5 0 0 0-13 0 19.5 19.5 0 0 0 33.28 13.78 6.495 6.495 0 0 0 1.558-4.479 6.495 6.495 0 0 0-1.899-4.345 6.501 6.501 0 0 0-8.824-.341Z" fill="#fff"/><path d="M420.629 286.492c-36.158 0-61.326-19.506-64.447-50.261h29.329c3.057 15.475 17.104 24.968 36.874 24.968 16.323 0 26.013-6.502 26.013-17.62 0-8.843-6.503-14.5-19.51-16.776l-24.517-4.876c-28.55-5.657-41.881-19.506-41.881-42.654 0-28.088 22.566-46.944 56.188-46.944 13.006 0 56.318 3.446 61.131 46.749h-29.33c-1.886-10.598-8.714-22.562-29.85-22.562-16.909 0-27.379 7.608-27.379 19.831 0 12.224 10.796 16.321 22.501 18.726l18.535 3.772c31.345 6.502 44.742 18.855 44.742 41.157 0 28.219-22.891 46.49-58.399 46.49Zm129.236.198a53.528 53.528 0 0 1-51.848-33.407 53.504 53.504 0 0 1-3.885-21.406 52.602 52.602 0 0 1 54.887-55.072c30.305 0 51.506 21.717 51.506 52.862a62.94 62.94 0 0 1-.455 8.647h-78.82v1.496a26.854 26.854 0 0 0 28.745 23.212 21.065 21.065 0 0 0 18.599-7.997h29.59c-5.983 19.051-25.363 31.665-48.319 31.665Zm-.651-87.063a26.013 26.013 0 0 0-27.118 21.522l-.39 1.626h51.115v-1.496a22.43 22.43 0 0 0-15.066-20.462 22.461 22.461 0 0 0-8.866-1.19h.325Zm114.462 85.957a52.75 52.75 0 0 1-36.885-16.2 52.726 52.726 0 0 1-14.686-37.507 52.012 52.012 0 0 1 31.341-49.697 52.043 52.043 0 0 1 20.23-4.27 52.82 52.82 0 0 1 29.264 8.192l2.016 1.301v-7.282h28.16v103.252h-28.094v-7.282l-2.016 1.3a52.818 52.818 0 0 1-29.33 8.193Zm5.072-84.527a29.457 29.457 0 0 0-28.744 30.755 29.197 29.197 0 0 0 17.465 27.785 29.22 29.22 0 0 0 11.279 2.449 31.091 31.091 0 0 0 26.013-12.679v-35.306a30.697 30.697 0 0 0-26.013-12.939v-.065Zm77.564 82.317V180.122h28.16v13.719l2.146-2.015a50.41 50.41 0 0 1 34.987-13.33v26.594a50.269 50.269 0 0 0-36.808 15.605v62.809l-28.485-.13Zm127.865 2.471a53.99 53.99 0 0 1-38.167-15.807 53.953 53.953 0 0 1-15.81-38.16 53.948 53.948 0 0 1 15.81-38.16 53.99 53.99 0 0 1 38.167-15.807c27.054 0 48.124 16.905 52.026 41.353h-28.224a23.08 23.08 0 0 0-23.542-16.775 27.7 27.7 0 0 0-27.899 29.389 27.24 27.24 0 0 0 16.814 27.089 27.248 27.248 0 0 0 11.085 2.04 22.7 22.7 0 0 0 23.542-16.58h28.224c-3.902 24.447-25.167 41.418-52.026 41.418Zm145.663-2.481v-54.162c0-17.295-8.78-27.178-24.058-27.178a33.168 33.168 0 0 0-24.257 13.719l-.326.39v67.231h-28.094V128.811h28.094v60.013l2.147-1.69a45.854 45.854 0 0 1 29.464-10.533c27.44 0 45.13 19.506 45.13 49.74v56.828l-28.1.195Zm165.18.005-11.7-28.934h-69.85l-11.77 28.934h-31.15l63.67-148.571h28.28l63.48 148.571h-30.96Zm-70.88-55.332h48.51l-24.52-59.754-23.99 59.754Zm153.79 58.644c-16.84 0-45.52-4.876-48.58-37.386h25.63c2.08 10.403 9.88 15.735 23.15 15.735 11.7 0 19.51-4.097 19.51-10.404 0-5.071-4.29-8.777-11.51-9.883l-22.76-3.966c-11.25-2.016-30.11-8.583-30.11-29.909 0-21.327 17.04-33.811 44.48-33.811 13.01 0 42.99 3.251 46.11 33.421h-25.5c-1.23-8.323-8.78-13.004-20.61-13.004-11.84 0-16.97 5.591-16.97 10.338 0 3.316 1.75 9.103 13.65 11.248l19.51 3.121c20.81 3.706 30.96 13.524 30.96 29.845-.52 21.456-18.28 34.655-46.96 34.655Zm105.94 0c-16.9 0-45.52-4.876-48.58-37.386h25.56c2.08 10.403 9.89 15.735 23.22 15.735 11.64 0 19.18-4.097 19.18-10.404 0-5.071-4.29-8.777-11.44-9.883l-22.76-3.966c-11.25-2.016-30.11-8.583-30.11-29.909 0-21.327 17.04-33.811 44.48-33.811 13.01 0 42.99 3.251 46.11 33.421h-25.5c-1.23-8.323-8.84-13.004-20.61-13.004s-17.04 5.591-17.04 10.338c0 3.316 1.82 9.103 13.72 11.248l19.51 3.121c20.81 3.706 30.96 13.524 30.96 29.845-.26 21.456-18.08 34.655-46.7 34.655Zm65.63-3.312V180.116h28.16v103.253h-28.16Zm14.31-125.554a16.45 16.45 0 0 1-6.54-.996 16.386 16.386 0 0 1-5.62-3.491 16.37 16.37 0 0 1-3.79-5.422 16.23 16.23 0 0 1-1.35-6.477c0-4.552 1.81-8.918 5.03-12.137a17.16 17.16 0 0 1 12.14-5.028c4.55 0 8.92 1.809 12.14 5.028a17.163 17.163 0 0 1 5.03 12.137c0 2.208-.45 4.393-1.31 6.425a16.356 16.356 0 0 1-3.72 5.398 16.418 16.418 0 0 1-5.54 3.507 16.433 16.433 0 0 1-6.47 1.056Zm79 128.866c-16.84 0-45.52-4.876-48.51-37.386h25.56c2.08 10.403 9.88 15.735 23.15 15.735 11.71 0 19.51-4.097 19.51-10.404 0-5.071-4.29-8.777-11.51-9.883l-22.76-3.966c-11.19-2.016-30.05-8.583-30.05-29.909 0-21.327 17.04-33.811 44.42-33.811 13.01 0 42.99 3.251 46.11 33.421h-25.5c-1.17-8.323-8.78-13.004-20.61-13.004-11.84 0-16.97 5.591-16.97 10.338 0 3.316 1.75 9.103 13.65 11.248l19.51 3.121c20.88 3.706 30.96 13.524 30.96 29.845-.52 21.456-18.28 34.655-46.96 34.655Zm116.09.006c-25.04 0-41.17-17.361-41.17-44.214v-39.012h-22.3v-23.343h22.3v-37.842h27.9v37.842h38.24v23.213h-38.24v39.012c0 11.964 7.22 18.791 19.9 18.791a72.266 72.266 0 0 0 16.85-2.536l3.57 23.732a78.064 78.064 0 0 1-27.05 4.357Z" fill="#111827"/></svg>

<svg width="1784" height="411" viewBox="0 0 1784 411" fill="none" xmlns="http://www.w3.org/2000/svg">
<path d="M303 160V290C303 293.448 301.63 296.754 299.192 299.192C296.754 301.63 293.448 303 290 303H160C146.209 303 132.982 297.521 123.23 287.77C113.479 278.018 108 264.791 108 251V160C108 146.209 113.479 132.982 123.23 123.23C132.982 113.479 146.209 108 160 108H251C264.791 108 278.018 113.479 287.77 123.23C297.521 132.982 303 146.209 303 160Z" fill="#F7BF0A"/>
<path d="M257.527 244.495L237.052 224.02C241.964 216.602 244.566 207.893 244.527 198.995C244.527 189.996 241.859 181.199 236.859 173.717C231.86 166.235 224.753 160.403 216.439 156.959C208.125 153.515 198.977 152.614 190.151 154.37C181.325 156.125 173.217 160.459 166.854 166.822C160.491 173.185 156.157 181.293 154.402 190.119C152.646 198.945 153.547 208.093 156.991 216.407C160.435 224.722 166.266 231.828 173.749 236.827C181.231 241.827 190.028 244.495 199.027 244.495C207.925 244.534 216.634 241.932 224.052 237.02L244.527 257.495C246.251 259.219 248.589 260.188 251.027 260.188C253.465 260.188 255.803 259.219 257.527 257.495C259.251 255.771 260.22 253.433 260.22 250.995C260.22 248.557 259.251 246.219 257.527 244.495ZM227.562 214.53C224.553 220.011 220.043 224.521 214.562 227.53C209.804 230.147 204.458 231.511 199.027 231.495C192.599 231.495 186.316 229.589 180.971 226.018C175.627 222.447 171.461 217.371 169.001 211.433C166.541 205.494 165.898 198.959 167.152 192.655C168.406 186.351 171.501 180.56 176.046 176.015C180.592 171.469 186.383 168.374 192.687 167.12C198.991 165.866 205.526 166.51 211.464 168.969C217.403 171.429 222.479 175.595 226.05 180.939C229.621 186.284 231.527 192.568 231.527 198.995C231.543 204.426 230.179 209.772 227.562 214.53Z" fill="white"/>
<path d="M203.646 203.61C202.737 204.527 201.576 205.152 200.31 205.406C199.044 205.66 197.731 205.531 196.539 205.036C195.346 204.541 194.328 203.702 193.615 202.626C192.901 201.55 192.524 200.286 192.531 198.995C192.531 197.271 191.846 195.618 190.627 194.399C189.408 193.18 187.755 192.495 186.031 192.495C184.307 192.495 182.654 193.18 181.435 194.399C180.216 195.618 179.531 197.271 179.531 198.995C179.535 202.849 180.68 206.616 182.823 209.82C184.966 213.023 188.01 215.52 191.571 216.994C195.132 218.469 199.05 218.855 202.831 218.104C206.611 217.353 210.084 215.499 212.811 212.775C213.876 211.532 214.433 209.932 214.369 208.296C214.306 206.66 213.628 205.108 212.47 203.951C211.313 202.793 209.761 202.115 208.125 202.052C206.489 201.989 204.89 202.545 203.646 203.61Z" fill="white"/>
<path d="M420.629 286.492C384.471 286.492 359.303 266.986 356.182 236.231H385.511C388.568 251.706 402.615 261.199 422.385 261.199C438.708 261.199 448.398 254.697 448.398 243.579C448.398 234.736 441.895 229.079 428.888 226.803L404.371 221.927C375.821 216.27 362.49 202.421 362.49 179.273C362.49 151.185 385.056 132.329 418.678 132.329C431.684 132.329 474.996 135.775 479.809 179.078H450.479C448.593 168.48 441.765 156.516 420.629 156.516C403.72 156.516 393.25 164.124 393.25 176.347C393.25 188.571 404.046 192.668 415.751 195.073L434.286 198.845C465.631 205.347 479.028 217.7 479.028 240.002C479.028 268.221 456.137 286.492 420.629 286.492Z" fill="#111827"/>
<path d="M549.865 286.69C542.541 286.995 535.234 285.793 528.394 283.158C521.555 280.523 515.329 276.512 510.104 271.373C504.879 266.234 500.765 260.077 498.017 253.283C495.27 246.489 493.947 239.203 494.132 231.877C493.781 224.569 494.959 217.268 497.59 210.44C500.222 203.613 504.249 197.409 509.415 192.226C514.58 187.043 520.771 182.994 527.59 180.339C534.41 177.684 541.708 176.48 549.019 176.805C579.324 176.805 600.525 198.522 600.525 229.667C600.572 232.556 600.42 235.446 600.07 238.314H521.25V239.81C522.161 246.622 525.649 252.825 530.996 257.143C536.343 261.461 543.143 263.565 549.995 263.022C553.517 263.358 557.068 262.801 560.318 261.403C563.569 260.006 566.415 257.812 568.594 255.025H598.184C592.201 274.076 572.821 286.69 549.865 286.69ZM549.214 199.627C542.84 199.262 536.554 201.253 531.554 205.222C526.553 209.191 523.187 214.86 522.096 221.149L521.706 222.775H572.821V221.279C572.723 218.269 572.02 215.31 570.754 212.578C569.488 209.846 567.684 207.396 565.451 205.376C563.217 203.355 560.6 201.805 557.755 200.817C554.909 199.83 551.894 199.425 548.889 199.627H549.214Z" fill="#111827"/>
<path d="M663.676 285.584C649.721 285.276 636.458 279.451 626.791 269.384C617.125 259.317 611.843 245.83 612.105 231.877C611.844 224.922 612.981 217.985 615.45 211.477C617.919 204.97 621.669 199.024 626.478 193.991C631.286 188.959 637.057 184.943 643.446 182.18C649.836 179.418 656.715 177.966 663.676 177.91C674.023 177.715 684.199 180.564 692.94 186.102L694.956 187.403V180.121H723.116V283.373H695.022V276.091L693.006 277.391C684.246 282.942 674.045 285.792 663.676 285.584ZM668.748 201.057C664.828 201.148 660.966 202.021 657.388 203.624C653.809 205.228 650.587 207.529 647.91 210.393C645.233 213.258 643.155 216.628 641.797 220.305C640.439 223.983 639.83 227.895 640.004 231.812C639.865 235.694 640.503 239.565 641.879 243.198C643.256 246.831 645.344 250.153 648.021 252.969C650.698 255.785 653.91 258.038 657.469 259.597C661.029 261.155 664.863 261.988 668.748 262.046C673.788 262.2 678.789 261.127 683.321 258.918C687.852 256.709 691.779 253.431 694.761 249.367V249.042V214.386V214.061C691.831 209.924 687.922 206.577 683.383 204.32C678.844 202.062 673.816 200.963 668.748 201.122V201.057Z" fill="#111827"/>
<path d="M746.312 283.374V180.122H774.472V193.841L776.618 191.826C786.136 183.056 798.664 178.283 811.605 178.496V205.09C804.729 205.035 797.914 206.392 791.583 209.076C785.251 211.76 779.538 215.715 774.797 220.695V221.085V283.504L746.312 283.374Z" fill="#111827"/>
<path d="M874.177 285.845C867.089 285.845 860.07 284.449 853.521 281.737C846.972 279.025 841.022 275.049 836.01 270.038C830.997 265.027 827.022 259.078 824.309 252.53C821.596 245.983 820.2 238.965 820.2 231.878C820.2 224.791 821.596 217.773 824.309 211.226C827.022 204.678 830.997 198.729 836.01 193.718C841.022 188.706 846.972 184.731 853.521 182.019C860.07 179.307 867.089 177.911 874.177 177.911C901.231 177.911 922.301 194.816 926.203 219.264H897.979C896.552 214.206 893.44 209.786 889.16 206.736C884.879 203.686 879.685 202.188 874.437 202.489C870.636 202.455 866.869 203.203 863.369 204.688C859.87 206.173 856.713 208.361 854.096 211.118C851.479 213.875 849.458 217.141 848.158 220.712C846.857 224.283 846.306 228.084 846.538 231.878C846.274 235.666 846.805 239.468 848.097 243.039C849.389 246.611 851.414 249.872 854.041 252.615C856.668 255.358 859.839 257.521 863.352 258.967C866.864 260.412 870.64 261.107 874.437 261.007C879.674 261.393 884.882 259.951 889.175 256.928C893.468 253.904 896.579 249.487 897.979 244.427H926.203C922.301 268.874 901.036 285.845 874.177 285.845Z" fill="#111827"/>
<path d="M1019.84 283.364V229.202C1019.84 211.907 1011.06 202.024 995.782 202.024C990.985 202.414 986.331 203.843 982.142 206.212C977.953 208.581 974.33 211.833 971.525 215.743L971.199 216.133V283.364H943.105V128.811H971.199V188.824L973.346 187.134C981.626 180.278 992.054 176.55 1002.81 176.601C1030.25 176.601 1047.94 196.107 1047.94 226.341V283.169L1019.84 283.364Z" fill="#111827"/>
<path d="M1185.02 283.369L1173.32 254.435H1103.47L1091.7 283.369H1060.55L1124.22 134.798H1152.5L1215.98 283.369H1185.02ZM1114.14 228.037H1162.65L1138.13 168.283L1114.14 228.037Z" fill="#111827"/>
<path d="M1267.93 286.681C1251.09 286.681 1222.41 281.805 1219.35 249.295H1244.98C1247.06 259.698 1254.86 265.03 1268.13 265.03C1279.83 265.03 1287.64 260.933 1287.64 254.626C1287.64 249.555 1283.35 245.849 1276.13 244.743L1253.37 240.777C1242.12 238.761 1223.26 232.194 1223.26 210.868C1223.26 189.541 1240.3 177.057 1267.74 177.057C1280.75 177.057 1310.73 180.308 1313.85 210.478H1288.35C1287.12 202.155 1279.57 197.474 1267.74 197.474C1255.9 197.474 1250.77 203.065 1250.77 207.812C1250.77 211.128 1252.52 216.915 1264.42 219.06L1283.93 222.181C1304.74 225.887 1314.89 235.705 1314.89 252.026C1314.37 273.482 1296.61 286.681 1267.93 286.681Z" fill="#111827"/>
<path d="M1373.87 286.681C1356.97 286.681 1328.35 281.805 1325.29 249.295H1350.85C1352.93 259.698 1360.74 265.03 1374.07 265.03C1385.71 265.03 1393.25 260.933 1393.25 254.626C1393.25 249.555 1388.96 245.849 1381.81 244.743L1359.05 240.777C1347.8 238.761 1328.94 232.194 1328.94 210.868C1328.94 189.541 1345.98 177.057 1373.42 177.057C1386.43 177.057 1416.41 180.308 1419.53 210.478H1394.03C1392.8 202.155 1385.19 197.474 1373.42 197.474C1361.65 197.474 1356.38 203.065 1356.38 207.812C1356.38 211.128 1358.2 216.915 1370.1 219.06L1389.61 222.181C1410.42 225.887 1420.57 235.705 1420.57 252.026C1420.31 273.482 1402.49 286.681 1373.87 286.681Z" fill="#111827"/>
<path d="M1439.5 283.369V180.116H1467.66V283.369H1439.5ZM1453.81 157.815C1451.58 157.929 1449.36 157.59 1447.27 156.819C1445.18 156.048 1443.26 154.86 1441.65 153.328C1440.03 151.796 1438.74 149.951 1437.86 147.906C1436.97 145.861 1436.51 143.657 1436.51 141.429C1436.51 136.877 1438.32 132.511 1441.54 129.292C1444.76 126.073 1449.12 124.264 1453.68 124.264C1458.23 124.264 1462.6 126.073 1465.82 129.292C1469.04 132.511 1470.85 136.877 1470.85 141.429C1470.85 143.637 1470.4 145.822 1469.54 147.854C1468.68 149.885 1467.41 151.721 1465.82 153.252C1464.23 154.782 1462.34 155.975 1460.28 156.759C1458.21 157.543 1456.01 157.902 1453.81 157.815V157.815Z" fill="#111827"/>
<path d="M1532.81 286.681C1515.97 286.681 1487.29 281.805 1484.3 249.295H1509.86C1511.94 259.698 1519.74 265.03 1533.01 265.03C1544.72 265.03 1552.52 260.933 1552.52 254.626C1552.52 249.555 1548.23 245.849 1541.01 244.743L1518.25 240.777C1507.06 238.761 1488.2 232.194 1488.2 210.868C1488.2 189.541 1505.24 177.057 1532.62 177.057C1545.63 177.057 1575.61 180.308 1578.73 210.478H1553.23C1552.06 202.155 1544.45 197.474 1532.62 197.474C1520.78 197.474 1515.65 203.065 1515.65 207.812C1515.65 211.128 1517.4 216.915 1529.3 219.06L1548.81 222.181C1569.69 225.887 1579.77 235.705 1579.77 252.026C1579.25 273.482 1561.49 286.681 1532.81 286.681Z" fill="#111827"/>
<path d="M1648.9 286.687C1623.86 286.687 1607.73 269.326 1607.73 242.473V203.461H1585.43V180.118H1607.73V142.276H1635.63V180.118H1673.87V203.331H1635.63V242.343C1635.63 254.307 1642.85 261.134 1655.53 261.134C1661.23 260.956 1666.88 260.105 1672.38 258.598L1675.95 282.33C1667.26 285.366 1658.1 286.841 1648.9 286.687Z" fill="#111827"/>
</svg>
